X: 11017
T: CINDY HARTMAN'S
C: Bob McQuillen 20 May 01
B: Bob's Note Book 11 #17
%R: reel
Z: 2020 John Chambers <jc:trillian.mit.edu>
M: C
L: 1/8
K: D
ag \
| f2dA d2fe | d2AF A2AG | FDFA dfgf | edcB A2ag |
| f2dA defe | d2AF A2AG | FAdf gecd | e2d2 d2  :|
|: AG \
| FDFA d2d2 | dfec d2fg | fdBd Adfd | cdef e2de |
| fdAF D2de | fafd B2ag | fdAf geag | f2d2 d2  :|
%%begintext align
%% As everybody knows,
%% lots of nice people live on the West Coast, many of
%% them in Seattle (of course!), and it turns out that one of
%% the very nicest of them all is Warren Argo's lovely wife,
%% Cindy Hartman. At least, this is what _I_ think, and actually,
%% I bet you do, too, because she sure is a winner from 'way back!
%% [heart with arrow through it] XX OO!
%%endtext

%%sep 1 1 500

%%sep 1 1 500

